X:1
T:Au feu d'amour
T:Philippe de Monte
T:Au feu d'amour
C:Philippe de Monte
%%score [ 1 2 3 4 ]
L:1/8
Q:1/4=140
M:4/2
K:F
V:1 treble nm="Soprano" snm="S"
V:2 treble-8 nm="Alto" snm="A"
V:3 treble-8 nm="Tenor" snm="T"
V:4 bass nm="Bass" snm="B"
V:1
 G16 | A8 G8 | G4 G4 ^F4 G4 | A2 B2 c2 B2 A2 G2 F2 G2 | A4 B8 G4- | G2 ^FE F4 G8 | z4 G4 G4 ^F4 | %7
w: Au|feu d'a-|mour, je fay ma|pé- * * * * * * *|* ni- tan-|* * * * ce|je fay ma|
 G4 A4 B8 | A8 F4 G4 | G2 A2 B8 A4 | G4 F4 G2 G2 E4 | D4 z2 D2 F3 G A2 d2 | d2 c2 B4 B4 A4 | %13
w: pé- ni- tan-|* ce, pour|u- ne da- me|qui me na- vr'à grand|tort, pour u- ne da- me|qui me na- vr'à grand|
 A2 F2 F2 F2 G4 z2 F2 | F2 F2 B2 B4 A4 G2 | G2 F2 _E4 D2 D2 G4 | G4 B6 A2 G4- | G4 ^F4 z8 | %18
w: tort, et tou- te- fois, et|tou- te- fois d'el- le ne|veux ven- gean- ce, d'el- le|ne veux ven- gean-|* ce:|
 z2 F2 G2 A2 B2 F2 G2 B2 | A2 A2 G2 D2 F2 G2 A2 G2 | G2 F2 E2 D4 ^C2 D4- | D8 z2 F2 G2 A2 | %22
w: J'ay- me trop mieux en en- du-|rer la mort, J'ay- me trop mieux en|en- du- rer _ la mort,|_ J'ay- me trop|
 B6 A2 G2 B2 A2 G2- | G2 ^F2 G2 D2 _E2 D3 C/B,/ C2 | D6 D2 D8 |] %25
w: mieux en en- du- * rer|_ la mort, en en- du- * * *|rer la mort.|
V:2
 d16 | f12 _e4 | d6 G2 A4 B4 | c6 de f8- | f4 d4 d8 | d4 d4 d4 _e4 | d4 G4 B2 A2 d4- | %7
w: Au|feu d'a-|mour, je fay ma|pé- * * *|* ni- tan-|ce, au feu d'a-|mour, _ je _ fay|
 d4 e4 g6 f2 | e8 d4 G4 | d6 e2 f4 f2 A2 | B2 c2 d8 c4 | F2 B2 A4 F2 F2 D2 d2- | d2 f2 f4 g4 e4 | %13
w: _ ma pé- ni-|tan- ce, pour|u- ne da- me pour|u- ne da- me|qui me na- vr'à grand tort, qui|_ me na- vr'à grand|
 d2 A2 d4 _e4 d4 | z2 d2 d2 B2 f4 d4 | d2 d2 B6 B2 _e4- | e2 d2 d6 cB c4 | d16- | d8 z2 c2 d2 e2 | %19
w: tort, et tou- te- fois,|et tou- te- fois d'el-|le ne veux ven- gean-||ce:|_ J'ay- me trop|
 f2 c2 _e2 d4 c4 B2 | A2 A2 G2 D2 F2 E2 D4 | z4 z2 F2 G2 A2 B2 c2 | d2 d2 g2 f2 d2 d2 f2 d2 | %23
w: mieux en en- du- rer la|mort, en en- du- rer la mort,|J'ay- me trop mieux en|en- du- * rer la mort, J'ay- me|
 _e2 d2 =B2 B2 c2 A3 G G2- | G2 ^FE F4 G8 |] %25
w: trop mieux en en- du- * * rer|_ la _ _ mort.|
V:3
 =B16 | c8 c8 | =B4 d4 d6 _B2 | A4 G4 F2 E2 D2 E2 | F6 GA B8 | A4 A4 B4 G2 A2 | B2 G2 c4 d4 A4 | %7
w: Au|feu d'a-|mour, je fay ma|pé- ni- tan- * * *||ce, au feu d'a- *|* * * mour, je|
 B4 c4 d2 G2 d4- | d2 ^c=B c4 d4 d4 | B4 B4 c6 F2 | G2 A2 B4 G4 A4 | D2 D2 F3 G A6 D2 | %12
w: fay ma pé- ni- tan-|* * * * ce, pour|u- ne da- me|qui me na- vr'à grand|tort, pour u- ne da- me|
 B2 A2 d4 d4 ^c4 | d2 D2 B6 B2 B2 d2 | d2 d2 G2 d4 c4 B2 | A2 B2 G4 F4 c4 | B4 B4 G8 | %17
w: qui me na- vr'à grand|tort, et tou- te- fois, et|tou- te- fois d'el- le ne|veux ven- gean- ce, ne|veux ven- gean-|
 A8 z2 F2 G2 A2 | B2 F2 B2 A2 G2 c2 B2 G2 | c6 B2 A2 G2 c2 d2 | c2 A2 B4 A4 F2 F2 | %21
w: ce: J'ay- me trop|mieux en en- du- rer J'ay- me trop|mieux en en- du- rer en|en- du- rer la mort, J'ay-|
 G2 A2 B2 F2 B2 A2 G2 F2 | B2 d2 c2 c2 B2 G2 c2 d2 | c2 A2 G6 ^F2 G4 | A8 =B8 |] %25
w: me trop mieux en en- du- rer en|en- du- rer la mort, J'ay- me trop|mieux en en- du- rer|la mort.|
V:4
 G,16 | F,8 C,8 | G,4 G,4 D,4 G,4 | F,4 C,4 D,2 E,2 F,2 E,2 | D,2 C,2 B,,2 A,,2 G,,8 | %5
w: Au|feu d'a-|mour, je fay ma|pé- ni- tan- * * *||
 D,4 D,4 G,4 C,4 | D,4 _E,4 D,6 C,2 | B,,4 A,,4 G,,8 | A,,4 A,4 B,4 B,4 | G,8 F,8 | z8 z4 A,,4 | %11
w: ce, au feu d'a-|mour, je fay ma|pé- ni- tan-|ce, pour u- ne|da- me|pour|
 B,,3 C, D,8 F,4 | G,2 A,2 B,4 G,4 A,4 | D,4 z2 B,,2 _E,2 E,2 B,,4 | z2 B,2 B,2 B,2 F,4 G,4 | %15
w: u- ne da- me|qui me na- vr'à grand|tort, et tou- te- fois,|et tou- te- fois d'el-|
 D,4 _E,4 B,,4 C,4 | G,6 F,2 _E,8 | D,12 z2 F,2 | G,2 A,2 B,2 F,2 B,2 A,2 G,4 | %19
w: le ne veux ven-|gean- * *|ce: J'ay-|me trop mieux en en- du- rer|
 F,4 G,2 G,2 D,2 E,2 F,2 B,,2 | C,2 D,2 G,,4 A,,4 B,,4 | z2 F,2 G,2 A,2 B,2 F,2 B,2 A,2 | %22
w: la mort, J'ay- me trop mieux en|en- du- rer la mort,|J'ay- me trop mieux en en- du-|
 G,2 D,2 E,2 F,2 G,2 G,,2 A,,2 B,,2 | C,2 D,2 G,,2 G,2 C,2 D,2 _E,4 | D,8 G,,8 |] %25
w: rer J'ay- me trop mieux en en- du-|rer la mort, en en- du- rer|la mort.|

